X: 242
T:Pan's Hornpipe
% Nottingham Music Database
S:Trad, arr Phil Rowe
M:6/8
K:A
E|"A"A2B c2d|"A"ea2 "D"g2f|"A"ecA cBc|"Bm"d2B "E7"A2G|"A"FGE E2c|
"E7"ded B2B|"E"GAB E3|"A"EAc edc|"B7"EFG "E7"E4|"A"E2E EFG|
"A"EAc e3|"E"GBc dcB|"A"cAc eAc|"E7"efe edB|"A"A3 -A2"|""a"G|
P:D
"D"Adf afd|Adf feA|"G"d2B d3|"G"Bcd efg|
"C"gfe efe|e2g g3|"G"dBG "D"A